X:1
T: Johnny's Welcome Home
C:
R:Reel
Q: 232
K:Am
M:4/4
L:1/8
AE ((3EDE) cE ((3EDE) |G^F EF GF ED|((3E^FG) AB cd ed|cB cd e2 ^fg|
ab a^f gb ge|dB GB AB cd|((3e^fg) ed cA BG|AG EG A2 ea|
|:ag ea ag ea|ag e^f g2 fg|ag bg ag ed|cB cd e2 ^fg|
ab a^f gb ge|dB GB AB cd|((3e^fg) ed cA BG|1AG EG Ad ea:|2AG EG Ad cB|
AE ((3EDE) cE ((3EDE) |G^F EF GF ED|((3E^FG) AB cd ed|cB cd e2 ^fg|
ab a^f gb ge|dB GB AB cd|((3e^fg) ed cA BG|AG EG A2 A2||
